!!!!SEGMENT: pl-kk--kk-i-480--001-001_wiltberger-august--missa-kyrie.krn
!!!cenid: 18xx:1435
!!!COM: Wiltberger, August
!!!COM-rismID: pe327522
!!!CDT: 1850/04/17-1928/12/02
!!!CNT: German
!!!OPR: Missa
!!!OTL: Kyrie
!!!OMV: 001
!!!PDT:
!!!AGN: Sacred; Mass
!!!YEC: Copyright 2022 Narodowy Instytut Fryderyka Chopina (https://polishscores.org)
!!!YEM: License CC-BY-4.0 (https://creativecommons.org/licenses/by/4.0)
!!!SMS-siglum: PL-Kk
!!!SMS-shelfmark: Kk.I.480
!!!SMS-shelfwork: 001-001 M
!!!SMS-variant: Tenor I: PL-Kk Kk.I.480:7; Tenor II: PL-Kk Kk.I.480:12; Bas I: PL-Kk Kk.I.480:17; Bas II: PL-Kk Kk.I.480:22
!!!SMS-altvar: Partytura: PL-Kk Kk.I.480:2
!!!NIFC-rismSourceID: 1001140257
!!!NIFC-rismChildID: 1001140257
!!!NIFC-islandoraID: pl-kk:14326
!!!URL-pdf-islandora: https://repozytorium.nifc.pl/islandora/object/pl-kk%3A14326/datastream/PDF/view
!!!URL-scan: https://polish.musicsources.pl/pl/lokalizacje/galeria/rekopisy/6087 @EN{Scan on Polish Music Sources Website} @PL{Skany w portalu Dziedzictwo Muzyki Polskiej w otwartym dostępie}
!!!IIIF:
!!!ONB-nifc: UWAGA: na podstawie głosów. Proszę uzupełnić pola SMS dot. partytury i głosów. Uwaga: części mszy: 1. Kyrie, 2. Gloria, 3. Sanctus, 4. Benedictus, 5. Agnus
!!!AIN: 2 empty 2 tenor
!!!key:
**kern	**text	**dynam	**kern	**text	**dynam	**kern	**text	**dynam	**kern	**text	**dynam
*part4	*	*	*part3	*	*	*part2	*	*	*part1	*	*
*staff4	*	*	*staff3	*	*	*staff2	*	*	*staff1	*	*
*Iempty	*	*	*Iempty	*	*	*Itenor	*	*	*Itenor	*	*
*I"Bas II	*	*	*I"Bas I	*	*	*I"Tenor II	*	*	*I"Tenor I	*	*
*I'B 2	*	*	*I'B 1	*	*	*I'T 2	*	*	*I'T 1	*	*
*clefF4	*	*	*clefF4	*	*	*clefG2	*	*	*clefG2	*	*
*k[b-]	*	*	*k[b-]	*	*	*k[b-]	*	*	*k[b-]	*	*
*F:	*	*	*F:	*	*	*F:	*	*	*F:	*	*
*M4/4	*	*	*M4/4	*	*	*M4/4	*	*	*M4/4	*	*
*met(c)	*	*	*met(c)	*	*	*met(c)	*	*	*met(c)	*	*
=1	=1	=1	=1	=1	=1	=1	=1	=1	=1	=1	=1
!	!	!	!	!	!	!	!	!LO:DY:a:rj	!	!	!LO:DY:a:rj
4.F\	Ky-	.	4.F\	Ky-	.	4.f/	Ky-	p	4.f/	Ky-	p
8F\	-ri-	.	8F\	-ri-	.	8f/	-ri-	.	8f/	-ri-	.
4G,\	-e	.	4G,\	-e	.	4g/	-e	.	4g,/	-e	.
4F\	e-	.	4F\	e-	.	4f/	e-	.	4f/	e-	.
=2	=2	=2	=2	=2	=2	=2	=2	=2	=2	=2	=2
!	!	!	!	!	!	!	!	!LO:HP:a	!	!	!LO:HP:a
2C/	-lei-	.	(>4F\	-lei-	.	2g/	-lei-	<	2g/	-lei-	<
!	!	!	!	!	!LO:HP:a	!	!	!	!	!	!
.	.	.	4E\)	.	<[[	.	.	[[	.	.	[[
.	.	.	.	.	.	.	.	.	.	.	.
!	!	!	!	!	!LO:HP:a	!	!	!LO:HP:a	!	!	!
2F\	-son,	.	2F\	-son,	> ]]	2a/	-son,	> ]]	2a/	-son,	>]]
=3	=3	=3	=3	=3	=3	=3	=3	=3	=3	=3	=3
!	!	!LO:DY:a	!	!	!LO:DY:a	!LO:N:n=2:vis=4	!	!LO:DY:a	!	!	!
4.F\	Ky-	mf	4.F\	Ky-	mf	4.cc 4.a\	Ky-	mf	4.cc\	Ky-	.
!	!	!	!	!	!	!	!	!	!	!	!LO:DY:a:rj
8F\	-ri-	.	8F\	-ri-	.	8cc 8a\	-ri-	.	8cc\	-ri-	mf
4BB-,/	-e	.	4F,\	-e	.	4dd 4b-,\	-e	.	4dd\	-e	.
4BB-/	e-	.	4F\	e-	.	4dd 4b-\	e-	.	4dd\	e-	.
=4	=4	=4	=4	=4	=4	=4	=4	=4	=4	=4	=4
!	!	!	!	!	!LO:HP:a	!	!	!LO:HP:a	!	!	!LO:HP:a
2C/	-lei-	.	4F\	-lei-	<	2cc 2g\	-lei-	<	2cc\	-lei-	<
!	!	!	!	!	!LO:HP:a	!	!	!	!	!	!
.	.	.	4E\	.	[ >	.	.	[[	.	.	[[
!	!	!	!	!	!	!	!	!LO:HP:a	!	!	!
2F\	-son	.	2F\	-son	]	2cc 2a\	-son,	> ]]	2cc\	-son,	>]]
!LO:LB:g=original	!	!	!LO:LB:g=original	!	!	!	!	!	!	!	!
=5	=5	=5	=5	=5	=5	=5	=5	=5	=5	=5	=5
!	!	!	!	!	!LO:HP:a	!LO:N:n=2:vis=4	!	!LO:HP:a	!	!	!LO:HP:a
4.D\	Ky-	.	4.F\	Ky-	<	4.dd 4.a\	Ky-	<	4.dd\	Ky-	<
8D\	-ri-	.	8F\	-ri-	.	8dd 8a\	-ri-	.	8dd\	-ri-	.
4AA/	-e	.	4E\	-e	.	4cc 4a\	-e	.	4cc\	-e	.
4GG/	e-	.	4G\	e-	[	4dd 4bn\	e-	[[	4dd\	e-	[[
!	!	!	!	!	!	!LO:LB:g=original	!	!	!LO:LB:g=original	!	!
=6	=6	=6	=6	=6	=6	=6	=6	=6	=6	=6	=6
!	!	!LO:DY:a:rj	!	!	!LO:DY:a:rj	!	!	!LO:DY:a:rj	!	!	!LO:DY:a:rj
4C/	-lei-	f	2G\	-lei-	f	2ee 2cc\	-lei-	f	(>2ee\	-lei-	f
4BBn/	.	.	.	.	.	.	.	.	.	.	.
4AA/	.	.	4A\	.	.	4ff\	.	.	4ff\	.	.
4C/	.	.	4G\	.	.	4ee\	.	.	4ee\	.	.
!	!	!	!	!	!	!	!	!	!	!	!LO:HP:a
.	.	.	.	.	.	.	.	.	.	.	>
=7	=7	=7	=7	=7	=7	=7	=7	=7	=7	=7	=7
*	*	*	*	*	*	*^	*	*	*	*	*
!	!	!LO:HP:a	!	!	!LO:HP:a	!	!	!	!	!	!	!
2FF/	.	>	4F\	.	>	4dd\	2a\	.	.	4dd\	.	.
.	.	.	4E\	.	.	[>4cc\	.	.	.	4cc\	.	.
2GG/	.	.	2D\	.	]]	4cc\]	2g\	.	.	4cc\	.	.
.	.	.	.	.	.	4bn\	.	.	.	4bn\)	.	]]
=8	=8	=8	=8	=8	=8	=8	=8	=8	=8	=8	=8	=8
1C	-son	.	1E	-son	.	1cc	1g	-son	.	1cc	-son	.
.	.	]	.	.	.	.	.	.	.	.	.	.
*	*	*	*	*	*	*v	*v	*	*	*	*	*
=9||	=9||	=9||	=9||	=9||	=9||	=9||	=9||	=9||	=9||	=9||	=9||
*M3/4	*	*	*M3/4	*	*	*M3/4	*	*	*M3/4	*	*
!	!	!LO:DY:a:rj	!	!	!LO:DY:a:rj	!	!	!LO:DY:a	!	!	!
4C/	Chris-	mf	4E\	Chris-	mf	4cc\	Chris-	mf	2.r	.	.
4AA,/	-te	.	4E,\	-te	.	4cc\	-te	.	.	.	.
4GG/	e-	.	4G\	e-	.	4bn\	e-	.	.	.	.
!LO:LB:g=original	!	!	!LO:LB:g=original	!	!	!	!	!	!	!	!
=10	=10	=10	=10	=10	=10	=10	=10	=10	=10	=10	=10
2D\	-lei-	.	[>2.F\	-lei-	.	(<2.a/	-lei-	.	4ff\	Chris-	.
.	.	.	.	.	.	.	.	.	4ff\	-te	.
4C/	.	.	.	.	.	.	.	.	4ee\	e-	.
=11	=11	=11	=11	=11	=11	=11	=11	=11	=11	=11	=11
!	!	!LO:HP:a	!	!	!	!	!	!	!	!	!LO:HP:a
2.BB-/	.	>	2F\]	.	.	2b-\	.	.	2.dd\	-lei-	>
.	.	.	4E\	.	.	4g/)	.	.	.	.	]]
!	!	!	!	!	!	!LO:LB:g=original	!	!	!	!	!
=12	=12	=12	=12	=12	=12	=12	=12	=12	=12	=12	=12
2.F\	-son,	.	2.F\	-son	.	2.a/	-son,	.	2.cc\	-son	.
.	.	]	.	.	.	.	.	.	.	.	.
!	!	!	!	!	!	!	!	!	!LO:LB:g=original	!	!
=13	=13	=13	=13	=13	=13	=13	=13	=13	=13	=13	=13
!	!	!	!	!	!	!	!	!	!LO:TX:b:t=P:problem=w taktach 13-16 tekst dopisany ołówkiem	!	!LO:HP:a
4F\	Chris-	.	4F\	Chris-	.	4a/	Chris-	.	4cc\	Chris-	<
!	!	!	!	!	!	!	!	!LO:HP:a	!	!	!
.	.	.	.	.	.	.	.	<	.	.	.
4F,\	-te	.	4F,\	-te	.	4a,/	-te	.	4cc\	-te	.
4BB-/	e-	.	4F\	e-	.	4b-X\	e-	.	4dd\	e-	.
=14	=14	=14	=14	=14	=14	=14	=14	=14	=14	=14	=14
4E-X\	-lei-	.	(>2G\	-lei-	.	4b-\	-lei-	.	2ee-X\	-lei-	[
!	!	!	!	!	!	!	!	!LO:HP:a	!	!	!LO:HP:a
4C/	.	.	.	.	.	4cc\	.	[ >	.	.	>
4D\	.	.	[>4F\)	.	.	4b-\	.	.	4dd\	.	.
=15	=15	=15	=15	=15	=15	=15	=15	=15	=15	=15	=15
2.F\	.	.	2.F\]	.	.	4b-\	.	.	2.cc\	.	.
.	.	.	.	.	.	8a/L	.	]]	.	.	.
.	.	.	.	.	.	8g/J	.	.	.	.	.
.	.	.	.	.	.	4a/	.	.	.	.	]]
=16	=16	=16	=16	=16	=16	=16	=16	=16	=16	=16	=16
2.BB-/	-son.	.	2.F\	-son.	.	2.b-\	-son	.	2.dd\	-son	.
!LO:LB:g=original	!	!	!LO:LB:g=original	!	!	!	!	!	!	!	!
=17||	=17||	=17||	=17||	=17||	=17||	=17||	=17||	=17||	=17||	=17||	=17||
*M4/4	*	*	*M4/4	*	*	*M4/4	*	*	*M4/4	*	*
*met(c)	*	*	*met(c)	*	*	*met(c)	*	*	*met(c)	*	*
!	!	!LO:DY:a:rj	!	!	!LO:DY:a:rj	!	!	!LO:DY:a:rj	!	!	!LO:DY:a:rj
4.BB-/	Ky-	f	4.F\	Ky-	f	4.b-\	Ky-	f	4.dd\	Ky-	f
8BB-/	-ri-	.	8F\	-ri-	.	8b-\	-ri-	.	8dd\	-ri-	.
4F,\	-e	.	4F,\	-e	.	4a,/	-e	.	4cc\	-e	.
!	!	!LO:HP:a	!	!	!	!	!	!	!	!	!
4E\	e-	<	4G\	e-	.	4cc\	e-	.	4ee\	e-	.
!	!	!	!	!	!	!LO:LB:g=original	!	!	!	!	!
=18	=18	=18	=18	=18	=18	=18	=18	=18	=18	=18	=18
!	!	!	!	!	!	!	!	!	!	!	!LO:HP:a
2D\	-lei-	[[	(>4A\	-lei-	.	(>4cc\	-lei-	<	2ff\	-lei-	<
!	!	!LO:HP:a	!	!	!	!	!	!	!	!	!
.	.	>	8G\L)	.	.	4bn\)	.	[ >	.	.	.
.	.	.	8F\J	.	.	.	.	.	.	.	[[
!	!	!	!	!	!	!	!	!	!	!	!LO:HP:a
2C/	-son	]]	2G\	-son,	.	2cc\	-son,	]]	2ee\	-son	> ]]
!	!	!	!	!	!	!	!	!	!LO:LB:g=original	!	!
=19	=19	=19	=19	=19	=19	=19	=19	=19	=19	=19	=19
!LO:TX:a:t=2.	!	!	!	!	!LO:DY:a:rj	!	!	!LO:DY:a:rj	!LO:TX:a:t=1.	!	!
!LO:TX:a:t=P:problem="2." przekreślone w źródle i dopisane ołówkiem "2"	!	!	!	!	!	!	!	!	!	!	!
!LO:TX:a:t=P:problem=jedna pauza wielotaktowa	!	!	!	!	!	!	!	!	!	!	!
1r	.	.	4E\	Ky-	p	4.cc\	Ky-	p	1r	.	.
.	.	.	4E\	-ri-	.	.	.	.	.	.	.
.	.	.	.	.	.	8cc\	-ri-	.	.	.	.
.	.	.	4E,\	-e	.	4g/	-e	.	.	.	.
.	.	.	4F\	e-	.	4a/	e-	.	.	.	.
=20	=20	=20	=20	=20	=20	=20	=20	=20	=20	=20	=20
1r	.	.	(>4D\	-lei-	.	2b-X\	-lei-	.	2r	.	.
.	.	.	4E\)	.	.	.	.	.	.	.	.
!	!	!	!	!	!	!	!	!	!	!	!LO:DY:a:rj
.	.	.	4F,\	-son	.	4a,/	-son	.	4.ff\	Ky-	mf
.	.	.	4F\	e-	.	4a/	e-	.	.	.	.
.	.	.	.	.	.	.	.	.	8ff\	-ri-	.
!	!	!	!LO:LB:g=original	!	!	!	!	!	!	!	!
=21	=21	=21	=21	=21	=21	=21	=21	=21	=21	=21	=21
!	!	!LO:DY:a	!	!	!	!	!	!	!	!	!
4BB-/	Ky-	mf	2F\	-lei-	.	4b-\	-lei-	.	4dd,\	-e	.
!	!	!	!	!	!	!	!	!	!	!	!LO:HP:a
4FF/	-ri-	.	.	.	.	4a/	.	.	4cc\	e-	<
4GG,/	-e	.	4D\	.	.	4g/	.	.	4b-\	-lei-	.
!	!	!LO:HP:a	!	!	!	!	!	!	!	!	!
4D\	e-	<	4F\	.	.	4f/	.	.	4a/	.	.
=22	=22	=22	=22	=22	=22	=22	=22	=22	=22	=22	=22
(<4C/	-lei-	.	4E\	.	.	8g/L	.	.	4cc\	.	[[
.	.	.	.	.	.	8a/	.	.	.	.	.
4D/)	.	[[	4F\	.	.	8b-/	.	.	[>4ff\	.	.
.	.	.	.	.	.	8a/J	.	.	.	.	.
2C/	.	.	2G\	.	.	2cc\	.	.	4ff\]	.	.
.	.	.	.	.	.	.	.	.	4ee\	.	.
=23	=23	=23	=23	=23	=23	=23	=23	=23	=23	=23	=23
1F	-son	.	1A	-son	.	1cc	-son	.	1ff	-son.	.
==	==	==	==	==	==	==	==	==	==	==	==
*-	*-	*-	*-	*-	*-	*-	*-	*-	*-	*-	*-
!!!system-decoration: [s1,s2,s3,s4]
!!!RDF**kern: > = above
!!!RDF**kern: < = below
!!!EED: Mateusz Mrugas
!!!EEV: 2021-01-29
!!!ENC: Tomasz Grochalski
!!!END: 2021-01-22
